X:1
T:James Gibb editions
T:And is it true, as I am told - Barnby
%%score 1 { ( 2 4 ) | ( 3 5 ) }
L:1/8
Q:1/4=80
M:3/4
K:Eb
V:1 treble nm="Midi_74"
V:2 treble nm="Midi_20"
V:4 treble 
V:3 bass 
V:5 bass 
V:1
"^Amelia Matilda Hull\n(1812-84)""^The little lamb (886. 886)""^And is it true, as I am told""^Joseph Barnby\n(1838-96)" z2 |: %1
w: |
w: |
w: |
w: |
 z G Bc | B3 F Bc | B3 G Be | d3 c Bc | B4 G2 | FB B2 =A2 | B4 B2 | B>B BG FE | c4 c2 | %10
w: And is it|true as I am|told, That there are|lambs wi- thin the|fold Of|God's be- lov- ed|Son? That|Je- sus Christ, with ten- der|care, Will|
w: And I, a|lit- tle stray- ing|lamb, May come to|Je- sus as I|am, Though|good- ness I have|none, May|now be fold- ed on His|breast As|
w: O- thers there|are who love me|too: But who, with|all their love, could|do What|Je- sus Christ has|done? Then|if He tea- ches me to|pray, I'll|
w: Then by this|gra- cious Shep- herd|fed, And by His|mer- cy gent- ly|led Where|liv- ing wa- ters|run, My|grea- test plea- sure will be|this, That|
 c>c c=A GF | d4 e2 | Bc (AG) F2 |1,2,3 E2 :|4 E6 || E6 | E6 |] %17
w: in His arms most gent- ly|bear The|help- less lit\- * tle|one?||||
w: birds wi- thin the pa- rent|nest, And|be His lit\- * tle|one?||||
w: sure- ly go the Him and|say: "Lord,|keep Thy lit\- * tle|one."||||
w: I'm a lit- tle lamb of|His, Who|loves the lit\- * tle||one.|A-|men.|
V:2
 z (B, |: [EG]B,[EG]B, | ([DA])B,[DA]B,[DA]B,) | ([EB]B,[EB]B,[EB]B,) | ([DA]B,[DA]B,[FA]B,) | %5
 ([EG]B,EB,GC) | FB (B2 =A2) | ([DB]B,DFBD) | (EB,EGFE) | c4 c2 | (FCF=AGF) | d4 e2 | %12
 (BcAG) F2 |1,2,3 EB, :|4 [G,E]6 || [CE]6 | [B,E]6 |] %17
V:3
 E,2 |: B,,2 E,2 | F,2 B,,2 F,2 | G,2 B,,2 G,2 | F,2 B,,2 D,2 | E,2 z2 [=E,B,]2 | [F,B,]2 F,4 | %7
 B,,4 A,2 | G,2 E,2 G,2 | A,2 A,,2 A,2 | =A,2 F,2 A,2 | (B,2 B,,2 C,2) | G,,A,, F,G, A,2 |1,2,3 %13
 G,2 :|4 [E,,E,]6 || [A,,A,]6 | [E,G,]6 |] %17
V:4
 x2 |: x4 | x6 | x6 | x6 | x4 x2 | D2 [CE]4 | x4 x2 | x4 _D2 | (CEAECE) | x4 E2 | %11
 (DFB!courtesy!_AGF) | E2 E2 D2 |1,2,3 x2 :|4 x4 x2 || x4 x2 | x4 x2 |] %17
V:5
 x2 |: x4 | x6 | x6 | x6 | x6 | x6 | x6 | x6 | x6 | x6 | x6 | x2 B,,2 B,,2 |1,2,3 E,2 :|4 x4 x2 || %15
 x4 x2 | x4 x2 |] %17

